src/16/actions/office-chart-line.svg

<svg xmlns="http://www.w3.org/2000/svg" width="16" height="16" viewBox="0 0 16 16">
 <defs>
  <style id="current-color-scheme" type="text/css">
   .ColorScheme-Text { color:#565656; } .ColorScheme-Highlight { color:#5294e2; }
  </style>
 </defs>
 <path style="fill:currentColor" class="ColorScheme-Text" d="M 2 2 L 2 3 L 2 4 L 2 8 L 2 9 L 2 10.626953 L 2 11.626953 L 2 13 L 2 14 L 14 14 L 14 13.001953 L 14 13 L 14 11.867188 L 13.958984 11.828125 L 11.130859 9 L 11.126953 9.0039062 L 11.121094 9 L 8.9980469 11.123047 L 5.875 8 L 4.4609375 8 L 3 8 L 3 4 L 3 3 L 3 2 L 2 2 z M 9 2 L 4.9980469 6.0019531 L 3.0019531 6.0019531 L 3.0019531 7.0019531 L 5.4121094 7.0019531 L 9.0019531 3.4121094 L 11.125 5.5351562 L 11.130859 5.53125 L 11.134766 5.5351562 L 13.962891 2.7070312 C 13.965857 2.7120315 13.255859 2 13.255859 2 L 11.130859 4.125 L 9.0039062 2 L 9.0019531 2.0019531 L 9 2 z M 3 9 L 5.4609375 9 L 8.9960938 12.535156 L 8.9980469 12.533203 L 9 12.535156 L 11.126953 10.410156 L 13.251953 12.535156 L 13.734375 13 L 3 13 L 3 11.626953 L 3 10.626953 L 3 9 z"/>
</svg>

<svg xmlns="http://www.w3.org/2000/svg" width="16" height="16"><defs><style id="current-color-scheme" type="text/css"></style></defs><path d="M2 2v12h12v-2.133l-.041-.039L11.131 9l-.004.004L11.121 9l-2.123 2.123L5.875 8H3V2H2zm7 0L4.998 6.002H3.002v1h2.41l3.59-3.59 2.123 2.123.006-.004.004.004 2.828-2.828c.003.005-.707-.707-.707-.707L11.13 4.125 9.004 2l-.002.002L9 2zM3 9h2.46l3.536 3.535.002-.002.002.002 2.127-2.125 2.125 2.125.482.465H3V9z" fill="currentColor" color="#565656"/></svg>
